!!!COM: Vivaldi, Antonio Lucio
!!!CDT: 1678/03/04-1741/08/28
!!!OPR: 12 Sonatas for Violin and Basso continuo
!!!OTL: Sonata in B minor, op. @{OPS}, no. @{ONM} (@{SCT})
!!!OPS: 2
!!!ONM: 5
!!!OMV: 1. Preludio
!!!SCT: RV 36
!!!SCA: Antonio Vivaldi: Thematisch-systematisches Verzeichnis seiner Werke (Ryom-Verzeichnis)
!!!OMD: Andante
!!!key: b
**kern	**fb	**kern
*part2	*	*part1
*staff2	*	*staff1
*ICklav	*	*ICstr
*Icemba	*	*Ivioln
*I"Basso continuo	*	*I"Violino
*I'bc	*	*I'v
*>[A,A,B,B]	*>[A,A,B,B]	*>[A,A,B,B]
*>norep[A,B]	*>norep[A,B]	*>norep[A,B]
*>A	*>A	*>A
*clefF4	*	*clefG2
*k[f#c#]	*	*k[f#c#]
*b:	*	*b:
*M4/4	*	*M4/4
*met(c)	*	*met(c)
*MM42	*	*MM42
=1	=1	=1
4B\	.	8b\L
.	.	16cc#y\L
.	.	16dd\JJ
4A#X\	6	8cc#y\L
.	.	16ff#y\L
.	.	16ee\JJ
8B\L	.	16dd\LL
.	.	16cc#y\J
16B\L	.	8b\J
16c#y\JJ	.	.
8d\L	.	8r
8D\J	.	16bb\LL
.	.	16aa\JJ
=2	=2	=2
8r	.	8gg\L
16e\LL	.	8b\J
16d\JJ	.	.
8c#y\L	6	8e\L
8C#y\J	.	16aa\L
.	.	16gg\JJ
8r	.	8ff#y/L
16d\LL	.	8d/J
16c#y\JJ	.	.
8B\L	6	8r
8BB\J	.	16gg\LL
.	.	16ff#y\JJ
=3	=3	=3
8r	.	8ee/L
16c#y\LL	6	8e/J
16B\JJ	.	.
8A#X\L	6	8c#y/L
8AA#X\J	.	16ff#y/L
.	.	16ee/JJ
8BB\L	.	8dd/L
(16B\L	.	8B/J
16F#y\JJ)	.	.
(16G\LL	.	8r
16F#y\)	.	.
(16E\	.	(16bb\LL
16D\JJ)	.	16ff#y\JJ)
!!LO:LB:g=original
=4	=4	=4
8E\L	.	(16gg\LL
.	.	16ff#y\)
8BB\J	.	(16ee\
.	.	16dd\JJ)
8F#y/L	5 4	8.cc#y\Lt
8FF#y/J	#	.
.	.	16b\Jk
8BB\L	.	4b\
16B\L	.	.
16c#y\JJ	.	.
8d\L	.	8r
8D\J	.	16ff#y\LL
.	.	16gg#X\JJ
=5	=5	=5
8C#y\L	6	8aa\L
8c#y\J	.	8aa\J
8BB\L	7	8aa\L
8B\J	6#/	16gg#X\L
.	.	16ff#y\JJ
8c#y\L	#	8ee#X\L
8B\	.	8cc#y\
8A\	6	8ff#y\
8G#X\J	.	8gg#X\J
=6	=6	=6
8F#y\L	.	8aa\L
8B\J	6#/ 5	16gg#X\L
.	.	16ff#y\JJ
8c#y\L	5 4	8.ee#X\Lt
8C#y\J	#	.
.	.	16ff#y\Jk
(16F#y\LL	.	8.ff#y\L
16E\)	.	.
(16D\	.	.
16C#y\JJ)	.	16ee\Jk
[4BB/	.	(16dd\LL
.	.	16cc#y\)
.	.	(16b\
.	.	16a\JJ)
=7	=7	=7
16BB/LL]	.	(16g#y/LL
16C#y/	.	16e#X/)
16AA/	.	16f#y/
16BB/JJ	.	16g#X/JJ
8C#y/L	5 4	8.g#y/Lt
8C#y/J	#	.
.	.	16f#y/Jk
2FF#y/	.	2f#y/
!!LO:LB:g=original
=8:|!|:	=8:|!|:	=8:|!|:
*>B	*>B	*>B
4F#y\	.	8ff#y\L
.	.	16gg#X\L
.	.	16aa\JJ
4E#X\	6	8gg#X\L
.	.	16ccc#y\L
.	.	16bb\JJ
8F#y\L	.	16aa\LL
.	.	16gg#X\J
16F#y\L	.	8ff#y\J
16G#y\JJ	.	.
8A\L	.	8r
8F#y\J	.	16ff#y\LL
.	.	16ggn\JJ
=9	=9	=9
8r	.	8aa\L
16BB/LL	#	8d#X/J
16C#y/JJ	.	.
8D#X/L	.	8B/L
8BB/J	.	8aa\J
8r	.	(16aa\LL
.	.	16ff#y\J)
16E\LL	.	8gg\J
16F#y\JJ	.	.
8G\L	.	8r
8E\J	.	16ee\LL
.	.	16ff#y\JJ
=10	=10	=10
8r	.	8gg\L
16AA/LL	.	8c#y/J
16BB/JJ	.	.
8C#y/L	.	8A/L
8AA/J	.	8gg\J
8r	.	(16gg\LL
.	.	16ee\J)
16D\LL	.	8ff#y\J
16E\JJ	.	.
8F#y\L	.	8r
8D\J	.	8ff#y\
=11	=11	=11
4.G\	.	8b\L
.	.	(16gg\L
.	.	16ff#y\JJ)
.	.	(16ee\LL
.	.	16dd\)
8E\	.	(16cc#y\
.	.	16b\JJ)
8F#y\L	#	8a#X/L
16f#y\L	.	8f#y/J
16e\JJ	.	.
8d\L	6	8r
8D\J	.	16ff#y\LL
.	.	16gg\JJ
!!LO:LB:g=original
=12	=12	=12
8r	.	(16gg\LL
.	.	16ff#y\J)
16e\LL	.	[8gg\J
16d\JJ	.	.
8c#y\L	6	16gg\LL]
.	.	16bb\
8C#y\J	.	16aa\
.	.	16gg\JJ
8r	.	(16ff#y\LL
.	.	16ee\J)
16d\LL	.	[8ff#y\J
16c#y\JJ	.	.
8B\L	.	16ff#y\LL]
.	.	16aa\
8BB\J	.	16gg\
.	.	16ff#y\JJ
=13	=13	=13
8r	.	(16ee\LL
.	.	16dd#y\J)
16c#y\LL	.	[8ee\J
16B\JJ	.	.
8A#X\L	5	16ee\LL]
.	.	16gg\
8AA#X\J	.	16ff#y\
.	.	16ee\JJ
8BB\L	.	8dd\L
8B\J	.	(16cc#y\L
.	.	16b\JJ)
8c#y\L	6	8ee\L
8C#y\J	.	(16dd\L
.	.	16cc#y\JJ)
=14	=14	=14
8D\L	.	8ff#y\L
8d\J	.	(16ee\L
.	.	16dd\JJ)
8e\L	6	8gg\L
8E\J	.	(16ff#y\L
.	.	16ee\JJ)
4F#y\	#	8aa#X\L
.	.	(16gg#X\L
.	.	16ff#y\JJ)
8G\L	7	8bb\L
8C#y\J	.	(16aa\L
.	.	16gg\JJ)
!!LO:LB:g=original
=15	=15	=15
8D\L	6	8ff#y\L
8E\J	.	(16ee\L
.	.	16dd\JJ)
8F#y/L	5 4	8.cc#y\Lt
8FF#y/J	#	.
.	.	16b\Jk
8BB\L	.	4b\
16d\L	.	.
16c#y\JJ	.	.
8B\L	.	8r
8BB\J	.	(16ff#y\LL
.	.	16b\JJ)
=16	=16	=16
8r	.	(16ccn\LL
.	.	16b\J)
16e\LL	6nr	[8cc\J
16d#X\JJ	.	.
8e\L	.	8cc\L]
8E\J	.	(16gg\L
.	.	16ccn\JJ)
8r	.	(16cc\LL
.	.	16b\J)
16e\LL	6nr	[8cc\J
16d#X\JJ	.	.
8e\L	.	8cc\L]
8E\J	.	(16gg\L
.	.	16ccn\JJ)
=17	=17	=17
8r	.	8cc\L
16e\LL	6nr	8cc\J
16d#X\JJ	.	.
8e\L	.	8cc\L
8E\J	.	16dd\L
.	.	16ee\JJ
8F#y\L	#	8a#X/L
8E\J	.	8f#y/J
8D/L	6	8b\L
8C#y/J	6#/	8cc#X\J
=18	=18	=18
8BB\L	.	8dd\L
8E\J	7 5	16cc#y\L
.	.	16b\JJ
8F#y/L	5 4	8f#y/L
8FF#y/J	#	8a#X/J
2BB/;	.	2b\;
=:|!	=:|!	=:|!
*-	*-	*-
!!!SMS: RV 36 / Estienne Roger, Amsterdam [facs.]
!!!ENC: Fran Bennion; rev. 04/21 E. Correia
!!!END: 2004/11/26
!!!ONB: Converted from MuseData with musedata2hum on Sat May 11 12:07:52 2024
!!!YEM: (C) 2004, 2004 Center for Computer Assisted Research in the Humanities.
!!!system-decoration: [(s1,s2)]
!!!URL-info: https://wiki.ccarh.org/wiki/MuseData:_Antonio_Vivaldi#Op._2:_Sonate_a_violino_e_basso_per_il_cembalo
!!!URL-pdf: https://pdf.musedata.org/vivaldi-op02-no05.pdf#page=1 MuseData edition
!!!URL-pdf: http://conquest.imslp.info/files/imglnks/usimg/b/b7/IMSLP99075-PMLP183164-Vivaldi_-_Sonatas_Op2.pdf#page=18 Estienne Roger Amsterdam: Estienne Roger, No.2, n.d.[1711].
!!!URL-youtube: https://www.youtube.com/watch?v=SiijZmW9jKM&t=5125s L'Arte dell'Arco
!!!title: @{OTL}, mov. @{OMV}
!!!filter-chint: chint -mid
!!!EEV: 2024/05/11
!!!source-file: https://bitbucket.org/musedata/vivaldi/src/master/roger/op2/no05/stage2/01/01
!!!source-file: https://bitbucket.org/musedata/vivaldi/src/master/roger/op2/no05/stage2/01/02
